X: 1
T: Accordion Crimes
O: trad. Irish
S: Rustic Roots Tunebook vol.1 p.3
R: reel
Z: 2020 John Chambers <jc:trillian.mit.edu>
M: 4/4
L: 1/8
K: G
"^A"|:\
"G"D2G2 A2G2 | "C"c2B2 A2G2 | "G"D2G2 A2G2 | "D"d3d- dBAB |\
"G"D2G2 A2G2 | "C"c2B2 A2G2 | "G"D3d- dBA2- |1 AGAB "G"G4 :|2 AGAB "G"BAGd ||
"B"|:\
"G"g3f- "C"f2e2 | "G"d3d- dBA2 | "D"d3d- dBA2 | dBde dBAB |\
"G"g3f- "C"f2e2 | "G"d3d- dBA2 | "D"d3d- dBA2-| AGAB "G"G4 |:
